src/assets/images/Star.svg

<svg width="37" height="40" xmlns="http://www.w3.org/2000/svg" fill="none">
 <defs>
  <clipPath id="clip0_194_347">
   <rect id="svg_1" fill="white" height="40" width="37"/>
  </clipPath>
  <linearGradient y2="-0.00207" x2="0.50001" y1="1.0189" x1="0.50001" id="paint0_linear_194_347">
   <stop stop-color="#FF9302"/>
   <stop stop-color="#FCD60A" offset="1"/>
  </linearGradient>
  <linearGradient y2="0.5" x2="0.99992" y1="0.5" x1="0" id="paint1_linear_194_347">
   <stop stop-color="#FDE329"/>
   <stop stop-color="#FFED78" offset="1"/>
  </linearGradient>
  <linearGradient y2="0.5" x2="0.99992" y1="0.5" x1="0" id="paint2_linear_194_347">
   <stop stop-color="#FDE329"/>
   <stop stop-color="#FFED78" offset="1"/>
  </linearGradient>
 </defs>
 <g>
  <title>Layer 1</title>
  <g id="svg_2" clip-path="url(#clip0_194_347)">
   <path id="svg_3" fill="#FF7F0E" d="m17.9181,5.88573c2.979,0 6.1098,10.26987 6.1098,10.26987c0,0 7.6245,-2.3175 10.9513,-1.0508c0.974,0.3714 0.9013,2.6095 0.4586,3.9619c-0.9361,2.8381 -6.8118,8.5746 -6.8118,8.5746c0,0 2.6595,10.3365 0.2498,12.0952c-2.4097,1.7587 -10.9577,-4.7016 -10.9577,-4.7016c0,0 -8.54477,6.4603 -10.95768,4.7016c-2.40974,-1.7587 0.37,-12.5301 0.37,-12.5301c0,0 -6.23307,-4.4699 -7.14068,-8.3905c-0.20872,-0.8953 -0.45855,-3.4476 0.51547,-3.8191c3.32684,-1.2635 11.09999,1.1588 11.09999,1.1588c0,0 3.1339,-10.26987 6.1129,-10.26987z"/>
   <path id="svg_4" fill="url(#paint0_linear_194_347)" d="m17.9182,2.40636c2.979,0 6.1098,10.26984 6.1098,10.26984c0,0 10.6984,-0.1841 11.6186,2.6603c0.9203,2.8445 -7.8427,9.0064 -7.8427,9.0064c0,0 3.4786,10.1555 1.0689,11.9143c-2.4098,1.7587 -10.9577,-4.7016 -10.9577,-4.7016c0,0 -8.54481,6.4603 -10.95771,4.7016c-2.40975,-1.7588 1.06889,-11.9143 1.06889,-11.9143c0,0 -8.75667,-6.1619 -7.83641,-9.0064c0.92025,-2.8444 11.61863,-2.6603 11.61863,-2.6603c0,0 3.1308,-10.26984 6.1097,-10.26984z"/>
   <path id="svg_5" fill="#FFF3C7" d="m28.8758,36.2571c-0.2055,0.1461 -0.4459,0.273 -0.7084,0.3143c-0.2561,0.054 -0.5218,0.054 -0.7811,0.0445c-0.5218,-0.035 -1.0341,-0.1524 -1.5337,-0.3016c-0.993,-0.3111 -1.9386,-0.7492 -2.862,-1.2191c-0.9266,-0.4666 -1.8121,-1.0032 -2.688,-1.5524c-0.8729,-0.5587 -1.7204,-1.1396 -2.5584,-1.7587l0.3478,0c-0.838,0.6159 -1.6887,1.2 -2.5583,1.7587c-0.876,0.5492 -1.7615,1.0858 -2.6881,1.5524c-0.9234,0.4699 -1.8689,0.9048 -2.86193,1.2159c-0.49965,0.146 -1.0088,0.2667 -1.53376,0.3016c-0.26248,0.0095 -0.52495,0.0127 -0.78111,-0.0445c-0.25931,-0.0412 -0.49966,-0.165 -0.70837,-0.3143c0.22453,0.1239 0.46487,0.2159 0.72102,0.2254c0.24983,0.0318 0.50282,0.0096 0.75265,-0.0222c0.49966,-0.0762 0.98351,-0.2317 1.45786,-0.4158c0.94874,-0.3588 1.85634,-0.8318 2.74184,-1.3397c1.7614,-1.0254 3.4723,-2.1683 5.1104,-3.381l0.1739,-0.1301l0.1739,0.1301c1.635,1.2159 3.3459,2.3556 5.1105,3.3841c0.8823,0.508 1.7931,0.981 2.7418,1.3397c0.4712,0.1842 0.9582,0.3429 1.4578,0.4159c0.2499,0.0317 0.5029,0.054 0.7527,0.0222c0.253,-0.0095 0.4933,-0.1016 0.721,-0.2254z"/>
   <path id="svg_6" fill="#CF6100" d="m17.9181,6.00953c2.3497,0 4.8227,8.10477 4.8227,8.10477c0,0 8.4404,-0.146 9.1646,2.0984c0.7273,2.2444 -6.1857,7.1079 -6.1857,7.1079c0,0 2.745,8.0127 0.8444,9.4c-1.9006,1.3873 -8.646,-3.7111 -8.646,-3.7111c0,0 -6.7422,5.0984 -8.64596,3.7111c-1.9006,-1.3873 0.84436,-9.4 0.84436,-9.4c0,0 -6.913,-4.8666 -6.18565,-7.1079c0.72735,-2.2444 9.16775,-2.0984 9.16775,-2.0984c0,0 2.4699,-8.10477 4.8195,-8.10477z"/>
   <path id="svg_7" fill="url(#paint1_linear_194_347)" d="m17.9181,5.42857c2.3497,0 4.8227,8.10473 4.8227,8.10473c0,0 8.4404,-0.146 9.1678,2.0984c0.7273,2.2445 -6.1857,7.108 -6.1857,7.108c0,0 2.745,8.0127 0.8444,9.4c-1.9006,1.3873 -8.646,-3.7111 -8.646,-3.7111c0,0 -6.7422,5.0984 -8.646,3.7111c-1.9006,-1.3873 0.8444,-9.4 0.8444,-9.4c0,0 -6.9162,-4.8635 -6.18885,-7.108c0.72736,-2.2444 9.16775,-2.0984 9.16775,-2.0984c0,0 2.4699,-8.10473 4.8195,-8.10473z"/>
   <path id="svg_8" fill="url(#paint2_linear_194_347)" d="m17.9181,5.42857c2.3497,0 4.8227,8.10473 4.8227,8.10473c0,0 8.4404,-0.146 9.1678,2.0984c0.7273,2.2445 -6.1857,7.108 -6.1857,7.108c0,0 2.745,8.0127 0.8444,9.4c-1.9006,1.3873 -8.646,-3.7111 -8.646,-3.7111c0,0 -6.7422,5.0984 -8.646,3.7111c-1.9006,-1.3873 0.8444,-9.4 0.8444,-9.4c0,0 -6.9162,-4.8635 -6.18885,-7.108c0.72736,-2.2444 9.16775,-2.0984 9.16775,-2.0984c0,0 2.4699,-8.10473 4.8195,-8.10473z"/>
   <path id="svg_9" fill="#FFFC81" d="m26.5641,32.1397c-0.1676,0.1111 -0.3573,0.2063 -0.5597,0.2317c-0.2024,0.0413 -0.408,0.0381 -0.6135,0.0254c-0.408,-0.0317 -0.8096,-0.1301 -1.1986,-0.2508c-0.7779,-0.2508 -1.5179,-0.6031 -2.2421,-0.9777c-0.7242,-0.3746 -1.4199,-0.7461 -2.1062,-1.1842c-0.6862,-0.4412 -1.3566,-0.746 -2.0144,-1.327l0.1739,0c-0.6578,0.581 -1.3314,0.8858 -2.0144,1.327c-0.6863,0.4381 -1.3788,0.8381 -2.1062,1.2127c-0.721,0.3746 -1.4642,0.7111 -2.2421,0.9651c-0.389,0.1206 -0.7906,0.2127 -1.1986,0.2445c-0.2055,0.0127 -0.4111,0.0095 -0.61348,-0.0286c-0.20556,-0.0254 -0.39214,-0.1206 -0.55975,-0.2318c0.17394,0.1016 0.36368,0.181 0.56607,0.1937c0.19926,0.0286 0.40166,0.0127 0.60086,-0.0095c0.3985,-0.054 0.7843,-0.1746 1.1606,-0.3143c0.7558,-0.2762 1.4768,-0.6445 2.182,-1.0413c1.4042,-0.7968 2.7608,-1.6921 4.0511,-2.6571l0.0854,-0.0635l0.0853,0.0635c1.2935,0.9682 2.647,1.8603 4.0511,2.6571c0.702,0.3968 1.4262,0.7651 2.182,1.0413c0.3763,0.1397 0.7622,0.2603 1.1606,0.3143c0.1993,0.0222 0.4016,0.0381 0.6009,0.0095c0.2055,-0.0191 0.3921,-0.0984 0.5692,-0.2z"/>
   <g id="svg_10" opacity="0.65"/>
   <g id="svg_12"/>
  </g>
 </g>
</svg>

<svg width="37" height="40" viewBox="0 0 37 40" fill="none" xmlns="http://www.w3.org/2000/svg">
<g clip-path="url(#clip0_194_347)">
<path d="M17.9181 5.88573C20.8971 5.88573 24.0279 16.1556 24.0279 16.1556C24.0279 16.1556 31.6524 13.8381 34.9792 15.1048C35.9532 15.4762 35.8805 17.7143 35.4378 19.0667C34.5017 21.9048 28.626 27.6413 28.626 27.6413C28.626 27.6413 31.2855 37.9778 28.8758 39.7365C26.4661 41.4952 17.9181 35.0349 17.9181 35.0349C17.9181 35.0349 9.37333 41.4952 6.96042 39.7365C4.55068 37.9778 7.33042 27.2064 7.33042 27.2064C7.33042 27.2064 1.09735 22.7365 0.189739 18.8159C-0.0189791 17.9206 -0.268808 15.3683 0.705209 14.9968C4.03205 13.7333 11.8052 16.1556 11.8052 16.1556C11.8052 16.1556 14.9391 5.88573 17.9181 5.88573Z" fill="#FF7F0E"/>
<path d="M17.9182 2.40636C20.8972 2.40636 24.028 12.6762 24.028 12.6762C24.028 12.6762 34.7264 12.4921 35.6466 15.3365C36.5669 18.181 27.8039 24.3429 27.8039 24.3429C27.8039 24.3429 31.2825 34.4984 28.8728 36.2572C26.463 38.0159 17.9151 31.5556 17.9151 31.5556C17.9151 31.5556 9.37029 38.0159 6.95739 36.2572C4.54764 34.4984 8.02628 24.3429 8.02628 24.3429C8.02628 24.3429 -0.73039 18.181 0.189867 15.3365C1.11012 12.4921 11.8085 12.6762 11.8085 12.6762C11.8085 12.6762 14.9393 2.40636 17.9182 2.40636Z" fill="url(#paint0_linear_194_347)"/>
<path d="M28.8758 36.2571C28.6703 36.4032 28.4299 36.5301 28.1674 36.5714C27.9113 36.6254 27.6456 36.6254 27.3863 36.6159C26.8645 36.5809 26.3522 36.4635 25.8526 36.3143C24.8596 36.0032 23.914 35.5651 22.9906 35.0952C22.064 34.6286 21.1785 34.092 20.3026 33.5428C19.4297 32.9841 18.5822 32.4032 17.7442 31.7841H18.092C17.254 32.4 16.4033 32.9841 15.5337 33.5428C14.6577 34.092 13.7722 34.6286 12.8456 35.0952C11.9222 35.5651 10.9767 36 9.98367 36.3111C9.48402 36.4571 8.97487 36.5778 8.44991 36.6127C8.18743 36.6222 7.92496 36.6254 7.6688 36.5682C7.40949 36.527 7.16914 36.4032 6.96043 36.2539C7.18496 36.3778 7.4253 36.4698 7.68145 36.4793C7.93128 36.5111 8.18427 36.4889 8.4341 36.4571C8.93376 36.3809 9.41761 36.2254 9.89196 36.0413C10.8407 35.6825 11.7483 35.2095 12.6338 34.7016C14.3952 33.6762 16.1061 32.5333 17.7442 31.3206L17.9181 31.1905L18.092 31.3206C19.727 32.5365 21.4379 33.6762 23.2025 34.7047C24.0848 35.2127 24.9956 35.6857 25.9443 36.0444C26.4155 36.2286 26.9025 36.3873 27.4021 36.4603C27.652 36.492 27.905 36.5143 28.1548 36.4825C28.4078 36.473 28.6481 36.3809 28.8758 36.2571Z" fill="#FFF3C7"/>
<path d="M17.9181 6.00953C20.2678 6.00953 22.7408 14.1143 22.7408 14.1143C22.7408 14.1143 31.1812 13.9683 31.9054 16.2127C32.6327 18.4571 25.7197 23.3206 25.7197 23.3206C25.7197 23.3206 28.4647 31.3333 26.5641 32.7206C24.6635 34.1079 17.9181 29.0095 17.9181 29.0095C17.9181 29.0095 11.1759 34.1079 9.27214 32.7206C7.37154 31.3333 10.1165 23.3206 10.1165 23.3206C10.1165 23.3206 3.2035 18.454 3.93085 16.2127C4.6582 13.9683 13.0986 14.1143 13.0986 14.1143C13.0986 14.1143 15.5685 6.00953 17.9181 6.00953Z" fill="#CF6100"/>
<path d="M17.9181 5.42857C20.2678 5.42857 22.7408 13.5333 22.7408 13.5333C22.7408 13.5333 31.1812 13.3873 31.9086 15.6317C32.6359 17.8762 25.7229 22.7397 25.7229 22.7397C25.7229 22.7397 28.4679 30.7524 26.5673 32.1397C24.6667 33.527 17.9213 28.4286 17.9213 28.4286C17.9213 28.4286 11.1791 33.527 9.2753 32.1397C7.3747 30.7524 10.1197 22.7397 10.1197 22.7397C10.1197 22.7397 3.2035 17.8762 3.93085 15.6317C4.65821 13.3873 13.0986 13.5333 13.0986 13.5333C13.0986 13.5333 15.5685 5.42857 17.9181 5.42857Z" fill="url(#paint1_linear_194_347)"/>
<path d="M17.9181 5.42857C20.2678 5.42857 22.7408 13.5333 22.7408 13.5333C22.7408 13.5333 31.1812 13.3873 31.9086 15.6317C32.6359 17.8762 25.7229 22.7397 25.7229 22.7397C25.7229 22.7397 28.4679 30.7524 26.5673 32.1397C24.6667 33.527 17.9213 28.4286 17.9213 28.4286C17.9213 28.4286 11.1791 33.527 9.2753 32.1397C7.3747 30.7524 10.1197 22.7397 10.1197 22.7397C10.1197 22.7397 3.2035 17.8762 3.93085 15.6317C4.65821 13.3873 13.0986 13.5333 13.0986 13.5333C13.0986 13.5333 15.5685 5.42857 17.9181 5.42857Z" fill="url(#paint2_linear_194_347)"/>
<path d="M26.5641 32.1397C26.3965 32.2508 26.2068 32.346 26.0044 32.3714C25.802 32.4127 25.5964 32.4095 25.3909 32.3968C24.9829 32.3651 24.5813 32.2667 24.1923 32.146C23.4144 31.8952 22.6744 31.5429 21.9502 31.1683C21.226 30.7937 20.5303 30.4222 19.844 29.9841C19.1578 29.5429 18.4874 29.2381 17.8296 28.6571H18.0035C17.3457 29.2381 16.6721 29.5429 15.9891 29.9841C15.3028 30.4222 14.6103 30.8222 13.8829 31.1968C13.1619 31.5714 12.4187 31.9079 11.6408 32.1619C11.2518 32.2825 10.8502 32.3746 10.4422 32.4064C10.2367 32.4191 10.0311 32.4159 9.82872 32.3778C9.62316 32.3524 9.43658 32.2572 9.26897 32.146C9.44291 32.2476 9.63265 32.327 9.83504 32.3397C10.0343 32.3683 10.2367 32.3524 10.4359 32.3302C10.8344 32.2762 11.2202 32.1556 11.5965 32.0159C12.3523 31.7397 13.0733 31.3714 13.7785 30.9746C15.1827 30.1778 16.5393 29.2825 17.8296 28.3175L17.915 28.254L18.0003 28.3175C19.2938 29.2857 20.6473 30.1778 22.0514 30.9746C22.7534 31.3714 23.4776 31.7397 24.2334 32.0159C24.6097 32.1556 24.9956 32.2762 25.394 32.3302C25.5933 32.3524 25.7956 32.3683 25.9949 32.3397C26.2004 32.3206 26.387 32.2413 26.5641 32.1397Z" fill="#FFFC81"/>
<g style="mix-blend-mode:screen" opacity="0.65">
<path d="M31.9054 15.6317C31.178 13.3873 22.7376 13.5333 22.7376 13.5333C22.7376 13.5333 20.2678 5.42857 17.9181 5.42857C15.5685 5.42857 13.0955 13.5333 13.0955 13.5333C13.0955 13.5333 4.65504 13.3873 3.92769 15.6317C3.68735 16.3714 4.28188 17.3968 5.18 18.4381C8.8041 20.6889 13.0765 21.9905 17.6493 21.9905C22.7028 21.9905 27.3863 20.4 31.235 17.6984C31.7884 16.9238 32.0888 16.1936 31.9054 15.6317Z" fill="url(#paint3_linear_194_347)"/>
</g>
<g style="mix-blend-mode:screen">
<path d="M18.9301 12.1905C22.2834 12.1905 25.0019 9.46154 25.0019 6.09524C25.0019 2.72893 22.2834 0 18.9301 0C15.5767 0 12.8583 2.72893 12.8583 6.09524C12.8583 9.46154 15.5767 12.1905 18.9301 12.1905Z" fill="url(#paint4_radial_194_347)"/>
</g>
</g>
<defs>
<linearGradient id="paint0_linear_194_347" x1="17.9187" y1="37.2063" x2="17.9187" y2="2.33557" gradientUnits="userSpaceOnUse">
<stop stop-color="#FF9302"/>
<stop offset="1" stop-color="#FCD60A"/>
</linearGradient>
<linearGradient id="paint1_linear_194_347" x1="3.87713" y1="18.9038" x2="31.96" y2="18.9038" gradientUnits="userSpaceOnUse">
<stop stop-color="#FDE329"/>
<stop offset="1" stop-color="#FFED78"/>
</linearGradient>
<linearGradient id="paint2_linear_194_347" x1="3.87713" y1="18.9038" x2="31.96" y2="18.9038" gradientUnits="userSpaceOnUse">
<stop stop-color="#FDE329"/>
<stop offset="1" stop-color="#FFED78"/>
</linearGradient>
<linearGradient id="paint3_linear_194_347" x1="3.87728" y1="13.709" x2="31.96" y2="13.709" gradientUnits="userSpaceOnUse">
<stop stop-color="white"/>
<stop offset="1"/>
</linearGradient>
<radialGradient id="paint4_radial_194_347" cx="0" cy="0" r="1" gradientUnits="userSpaceOnUse" gradientTransform="translate(18.9312 6.09467) scale(6.07123 6.09467)">
<stop stop-color="white"/>
<stop offset="0.1095" stop-color="#CBCBCB"/>
<stop offset="0.2511" stop-color="#8E8E8E"/>
<stop offset="0.3874" stop-color="#5B5B5B"/>
<stop offset="0.5145" stop-color="#343434"/>
<stop offset="0.6305" stop-color="#171717"/>
<stop offset="0.7314" stop-color="#060606"/>
<stop offset="0.8062"/>
</radialGradient>
<clipPath id="clip0_194_347">
<rect width="37" height="40" fill="white"/>
</clipPath>
</defs>
</svg>
